X: 21593
T: MRS. DEMPSTER
C: Strathspey.--William Dempster
Q: "Printed for the first time."
%R: strathspey
B: W. Hamilton "Universal Tune-Book" Vol. 2 Glasgow 1846 p.159 #3
S: http://s3-eu-west-1.amazonaws.com/itma.dl.printmaterial/book_pdfs/hamiltonvol2web.pdf
Z: 2016 John Chambers <jc:trillian.mit.edu>
M: C
L: 1/8
K: D
% - - - - - - - - - - - - - - - - - - - - - - - - -
F |\
D<DF>D B,>EEF | D<D D2 (D/E/F/G/) A>F |\
G>EF>D B,>EEF | D<D {DE}F>E DA,A, :| A |
d<df>d B>ee>f | d>df>d a>df>d |\
g>ef>d B>ee>f | d<d {de}f>e d>AA>f |
d<df>d B>ee>f | (3(def) (3(efg) (3(fed) (3(cBA) |\
(3(Bcd) (3(AFD) B,>EE>F | D<D {EF}F>E DA,A, |]
% - - - - - - - - - - - - - - - - - - - - - - - - -

%%sep 1 1 500
%%sep 1 1 500

